!!!COM: Fanny (Mendelssohn) Hensel
!!!CNT: Deutsch
!!!TXO: Deutsch
!!!OTL: "Suleika"
!!!LYR: von Willemer, Marianne
!!!OPR: 
!!!OPS: Op. 
!!!ONM: No. 
!!!ENC: Emily Thomas
!!!YOR: Hensel: Ausgewa2hlte Lieder fu2r Singstimme und Klavier
!!!YOR: Breitkopf & Hartel, 1994 vol. 2
!!!ODT: 1836/
!!NB: Vocal melody and text encoded.
**kern	**silbe
=1-	=1
*clefG2	*
*k[b-e-]	*
*M3/4	*
*MM[Andante soave e dolce]	*
2.r	.
=2	=2
2.r	.
=3	=3
{4dd	{Ach!
8r	.
8dd	um
8cc	dei-
8b-	-ne
=4	=4
2ee-	feuch-
8dd	-ten
8cc	|
=5	=5
4cc	Schwin-
4bn}	-gen,}
4r	.
=6	=6
{4gg	{West,
8r	.
8gg	wie
8ff	sehr
8ee-	ich
=7	=7
4dd	dich
4.cc	|
8bn	be-
=8	=8
4ee-	-nei-
4dd}	-de:}
4r	.
=9	=9
{4ee-	{Denn
8r	.
8ee-	du
8dd	kannst
8cc	ihm
=10	=10
4cc	Kun-
4.b-	|
8a-	-de
=11	=11
4a-	brin-
4g}	-gen,}
4r	.
=12	=12
{8g	{was
8g	ich
8g	in
8g	der
8b-	Tren-
8a-	-nung
=13	=13
[2g	lei-
8g]	|
8f	|
=14	=14
4e-}	-de.}
4r	.
4r	.
=15	=15
4r	.
4r	.
{8g	{Die
8a-	Be-
=16	=16
4.cc	-we-
8b-	-gung
8an	dei-
8g	-ner
=17	=17
4b-	Flu2-
4a}	-gel}
{8a	{weckt
8b-	im
=18	=18
4.dd	Bu-
8cc	-sen
8b-	stil-
8a	-les
=19	=19
4cc	She-
4b-}	-nen;}
4r	.
=20	=20
{4dd	{Blu-
4cc	-men,
4r	.
=21	=21
4dd	Au-
4cc	-gen,
4r	.
=22	=22
4.gg	Wald
8een	|
8cc	und
8b-	|
=23	=23
4b-	Hu2-
4a	|
4g	-gel
=24	=24
8g	stehn
8f	|
8g	|
8a	|
8b-	bei
8cc	|
=25	=25
2dd-	dei-
8cc	-nem
8b-	|
=26	=26
4b-	hauch
4a	|
4g-	in
=27	=27
2fS	Tra2-
8dd	|
8cc	|
=28	=28
4b-}	-nen.}
4r	.
4r	.
=29	=29
2.r	.
=30	=30
{4.dd	{Sag
8dd	ihm,
8cc	a-
8b-	-ber
=31	=31
2ee-	sag's
8dd	be-
8cc	|
=32	=32
4cc	-schei-
4bn}	-den:}
4r	.
=33	=33
{2gg	{Sei-
8ff	-ne
8ee-	|
=34	=34
8dd	Lie-
8cc	|
8bn	|
8cc	-be
8bn	sei
8cc	mein
=35	=35
4ee-	Le-
4dd}	-ben,}
4r	.
=36	=36
{4.ee-	{freu-
8ee-	-di-
8dd	-ges
8cc	Ge-
=37	=37
4cc	-fu2hl
4b-	|
4a-	von
=38	=38
4a-	bei-
4g}	-den}
4r	.
=39	=39
{8g	{wird
8f	mir
8g	sei-
8a	|
8b-	-ne
8cc	|
=40	=40
2dd-	Na2-
4cc}	-he,}
=41	=41
{4b-	{sei-
4a	|
4cc	-ne
=42	=42
4.ee-	Na2-
8cc	|
8b-	-he
8a	|
=43	=43
4cc	ge-
4b-}	-ben.}
4r	.
==	==
*-	*-
